!!!id: bhatk3191a
!!!vol: 3
!!!page: 191
!!!antara: Sadaranga ji na
!!!raag: bihag
!!!taal: teental
!!!tempo: madhyalaya
**kern
!!data: // >PG  >MG  M  P/  -  P  >S'N  N/  S'  -  S'  S'/  S'  R'  S'  -/
==1
gq
4e
fq
4e
4f
[4g
=
4g]
4g
ccq
4b
4b
=
2cc
4cc
4cc
=
4cc
4dd
2cc
!!data: // >NS'  S'  %S'  -/  N  >DN  %P  -/  >mP  -  N  N/  S'  N  %P  -/
==2
bq
4cc
4cc
2ccS
=
4b
aq
4b
2gS
=
f#q
2g
4b
4b
=
4cc
4b
2gS
!!data: // >PG  M  P  N/  S'  >DN  %P  -/  P  -  >PG  M/  G  G  %S  -/
==3
gq
4e
4f
4g
4b
=
4cc
aq
4b
2gS
=
2g
gq
4e
4f
=
4e
4e
2cS
==
*-
